svg/300/sharp/coffee-fill.svg

<svg xmlns="http://www.w3.org/2000/svg" width="48" height="48" viewBox="0 -960 960 960"><path d="M446.616-257.001q-109.461 0-188.038-74.23-78.577-74.231-78.577-181.923v-306.845h561.691q48.615 0 83.461 32.962 34.846 32.961 34.846 81.191 0 54.231-33.539 95.038-33.538 40.807-84.768 40.807h-32.693v56.847q0 107.308-77.23 181.73-77.231 74.423-185.153 74.423ZM225.385-615.384h438.23v-159.231h-438.23v159.231Zm483.614 0h32.693q33 0 52.961-27.731 19.962-27.731 19.962-62.731 0-29-21.769-48.884-21.77-19.885-51.154-19.885h-32.693v159.231ZM180.001-140.001v-45.384h599.998v45.384H180.001Z"/></svg>

<svg xmlns="http://www.w3.org/2000/svg" width="48" height="48" viewBox="0 -960 960 960"><path d="M446.62-257q-109.47 0-188.04-74.23Q180-405.46 180-513.15V-820h561.69q48.62 0 83.46 32.96Q860-754.08 860-705.85q0 54.23-33.54 95.04Q792.92-570 741.69-570H709v56.85q0 107.3-77.23 181.73Q554.54-257 446.62-257ZM225.39-615.38h438.23v-159.23H225.39v159.23Zm483.61 0h32.69q33 0 52.96-27.73 19.96-27.74 19.96-62.74 0-29-21.76-48.88-21.77-19.88-51.16-19.88H709v159.23ZM180-140v-45.39h600V-140H180Z"/></svg>
